X: 26031
T: Jacky's Return
R: jig
B: RSCDS 26-3
Z: 1997 by John Chambers <jc:trillian.mit.edu>
M: 6/8
L: 1/8
K: F
|:"F"{cde}f2F F2A | "Bb"B2d "C7"G2B | "F7"AGF "Dm7"cBA | "Gm"A3 "C7"G3 \
| "F"{cde}f2F F2A | "Bb"B2d "C7"G2B | "F7"AGF cBA | "C7"G3 "F"F3 :|
|: "F"cdc f2g | "F"a2f f3 | "Bb"def "F"cBA | "Gm"B2G "C7"G2c \
| "F"fcf "(Dm)"afa | "F"c'af "Bb"[d'3b3] | "F"afd cAF | "C7"G2F "F"F3 :|
%%center Book26/26031-Jackys_Return-JC.abc

%%sep 1 1 500
%%sep 1 1 500

